!!!!SEGMENT: pl-wtm--r-1540--006_stefani-jozef--missa-sanctus.krn
!!!cenid: 18xx:1774
!!!COM: Stefani, Józef
!!!COM-rismid: pe30024097
!!!CDT: 1800/04/16-1876/03/19
!!!CNT: Polish
!!!OTL: Missa – Sanctus
!!!PDT:
!!!AGN: Sacred; Mass
!!!SMS-siglum: PL-Wtm
!!!SMS-shelfmark: R 1540
!!!SMS-shelfwork: 001-006 M
!!!SMS-variant:
!!!SMS-altvar:
!!!NIFC-rismid: 1001120486
!!!URL-scan: http://repozytorium.nifc.pl/skany/pl-wtm-nut--r1540
!!!ONB-nifc: UWAGA: części Mszy: 1. Kyrie, 2. Gloria, 3. Graduale, 4. Credo, 5. Offertorium, 6. Sanctus, 7. Benedictus, 8. Agnus Dei. Na końcu rękopisu parte puzonów, trąbek i kotłów
**kern	**kern	**kern	**dynam	**kern	**kern	**kern	**text	**dynam	**kern	**text	**dynam	**kern	**text	**dynam	**kern	**dynam	**kern	**dynam	**kern	**dynam	**kern	**dynam	**kern	**dynam	**kern	**dynam	**kern	**dynam	**kern	**dynam	**kern	**dynam	**kern	**dynam	**kern	**dynam
*part18	*part17	*part16	*part16	*part15	*part15	*part14	*part14	*part14	*part13	*part13	*part13	*part12	*part12	*part12	*part11	*part11	*part10	*part10	*part9	*part9	*part8	*part8	*part7	*part7	*part6	*part6	*part5	*part5	*part4	*part4	*part3	*part3	*part2	*part2	*part1	*part1
*staff19	*staff18	*staff17	*	*staff16	*staff15	*staff14	*staff14	*	*staff13	*staff13	*	*staff12	*staff12	*	*staff11	*	*staff10	*	*staff9	*	*staff8	*	*staff7	*	*staff6	*	*staff5	*	*staff4	*	*staff3	*	*staff2	*	*staff1	*
*I"Timpani C. G.	*I"Trombone	*I"Trombe in C	*	*I"Organo.	*	*I"Baſso	*	*	*I"[Tenori]	*	*	*I"Tenori	*	*	*I"2do Soprano	*	*I"1o. Soprano	*	*I"Baſsi	*	*I"Viole	*	*I"[Violini]	*	*I"Violini	*	*I"Fagoto	*	*I"in C Corni	*	*I"in C Clarinetti	*	*I"Oboe	*	*I"Flauto	*
*I'timp	*I'trbn	*I'tr	*	*I'org	*	*I'B	*	*	*	*	*	*I'T	*	*	*I'S 2	*	*I'S 1	*	*I'b	*	*I'vle	*	*	*	*I'vl	*	*I'fg	*	*I'cor	*	*I'cl	*	*I'ob	*	*I'fl	*
*clefF4	*clefF4	*clefG2	*	*clefF4	*clefG2	*clefF4	*	*	*clefC4	*	*	*clefC4	*	*	*clefG2	*	*clefG2	*	*clefF4	*	*clefC3	*	*clefG2	*	*clefG2	*	*clefF4	*	*clefG2	*	*clefG2	*	*clefG2	*	*clefG2	*
*	*	*	*	*	*	*	*	*	*	*	*	*	*	*	*	*	*	*	*	*	*	*	*	*	*	*	*	*	*Trd0c0	*	*	*	*	*	*	*
*k[f#]	*k[f#]	*k[f#]	*	*k[f#]	*k[f#]	*k[f#]	*	*	*k[f#]	*	*	*k[f#]	*	*	*k[f#]	*	*k[f#]	*	*k[f#]	*	*k[f#]	*	*k[f#]	*	*k[f#]	*	*k[f#]	*	*k[f#]	*	*k[f#]	*	*k[f#]	*	*k[f#]	*
*M4/4	*M4/4	*M4/4	*	*M4/4	*M4/4	*M4/4	*	*	*M4/4	*	*	*M4/4	*	*	*M4/4	*	*M4/4	*	*M4/4	*	*M4/4	*	*M4/4	*	*M4/4	*	*M4/4	*	*M4/4	*	*M4/4	*	*M4/4	*	*M4/4	*
*met(c)	*met(c)	*met(c)	*	*met(c)	*met(c)	*met(c)	*	*	*met(c)	*	*	*met(c)	*	*	*met(c)	*	*met(c)	*	*met(c)	*	*met(c)	*	*met(c)	*	*met(c)	*	*met(c)	*	*met(c)	*	*met(c)	*	*met(c)	*	*met(c)	*
=1	=1	=1	=1	=1	=1	=1	=1	=1	=1	=1	=1	=1	=1	=1	=1	=1	=1	=1	=1	=1	=1	=1	=1	=1	=1	=1	=1	=1	=1	=1	=1	=1	=1	=1	=1	=1
!!LO:TX:t=P:problem:all\right:global
*	*	*	*	*2\right	*	*	*	*	*	*	*	*2\right	*	*	*	*	*2\right	*	*	*	*	*	*	*	*2\right	*	*	*	*	*	*	*	*	*	*	*
!	!	!LO:TX:b:t=4.	!	!	!	!	!	!	!	!	!	!	!	!LO:DY:a	!	!	!	!	!	!	!	!	!	!	!	!LO:HP:a	!	!	!	!	!	!	!	!	!LO:TX:a:t=Sanctus.	!
!	!	!	!	!	!	!	!	!LO:DY:a	!	!	!	!	!	!LO:DY:a	!	!	!	!LO:DY:a	!	!	!	!	!	!	!	!LO:DY:a	!	!	!	!	!	!	!	!	!LO:TX:a:t=Adagio.	!
00r	00r	00r	.	2.GG\ 2.G	2g/ 2b	2.GG/	.	p <	(>2G/	.	.	(2B\	San-	p <	(2g/	.	(2b\	p	(2.GG/	.	(2.G/	p	(2g/	.	(2b\	p <	1r	.	1r	.	1r	.	1r	.	1r	.
.	.	.	.	.	4b/ 4dd	.	.	.	4B/	.	.	4d\	.	.	4b/	.	4dd\	.	.	.	.	.	4b/	.	4dd\	.	.	.	.	.	.	.	.	.	.	.
!	!	!	!	!	!	!	!	!LO:DY:a	!	!	!	!	!	!LO:HP:a	!	!	!	!	!	!	!	!	!	!	!	!	!	!	!	!	!	!	!	!	!	!
.	.	.	.	4BB\ 4B	4g/ 4b	4BB/	.	[ >	4G/	.	.	4B\)	.	[ >	4g/)	.	4b\)	.	4BB/)	.	4B/	.	4g/)	.	4b\)	[[	.	.	.	.	.	.	.	.	.	.
=2	=2	=2	=2	=2	=2	=2	=2	=2	=2	=2	=2	=2	=2	=2	=2	=2	=2	=2	=2	=2	=2	=2	=2	=2	=2	=2	=2	=2	=2	=2	=2	=2	=2	=2	=2	=2
*	*	*	*	*	*	*	*	*	*	*	*	*	*	*	*	*	*	*	*	*	*	*	*	*	*	*	*	*	*^	*	*	*	*	*	*	*
*	*	*	*	*	*	*2\right	*	*	*	*	*	*	*	*	*	*	*	*	*2\right	*	*2\right	*	*	*	*	*	*	*	*	*2\right	*	*	*	*	*	*	*
!	!	!	!	!	!	!	!	!	!	!	!	!	!	!	!	!	!	!	!	!	!	!	!	!	!	!LO:HP:a	!	!	!	!	!	!	!	!	!	!	!
.	.	.	.	2.D\ 2.d	(4..f#/ 4..a	2.D\	.	]	2.F#/)	.	.	2.A\	-ctus	.	2.f#/	.	2.a/	.	2.D\	.	2.d\)	.	(>4..f#/	.	(4..a/	>	1r	.	2.dd/	2.dd\	p	1r	.	(4..ff#\	.	(4..aa\	p
.	.	.	.	.	32e#X/LLL 32g#X	.	.	.	.	.	.	.	.	]	.	.	.	.	.	.	.	.	32e#X/LLL	.	32g#X/LLL	]	.	.	.	.	.	.	.	32ee#X\LLL	.	32gg#X\LLL	.
.	.	.	.	.	32f#/JJJ 32a	.	.	.	.	.	.	.	.	.	.	.	.	.	.	.	.	.	32f#/JJJ	.	32a/JJJ	.	.	.	.	.	.	.	.	32ff#\JJJ)	.	32aa\JJJ)	.
.	.	.	.	.	4f#/) 4dd	.	.	.	.	.	.	.	.	.	.	.	.	.	.	.	.	.	4f#/)	.	4dd\)	.	.	.	.	.	.	.	.	4ff#\	.	4ddd\	.
.	.	.	.	4r	4r	4r	.	.	4r	.	.	4r	.	.	4r	.	4r	.	4r	.	4r	.	4r	.	4r	.	.	.	4r	4rgyy	.	.	.	4r	.	4r	.
*	*	*	*	*	*	*	*	*	*	*	*	*	*	*	*	*	*	*	*	*	*	*	*	*	*	*	*	*	*v	*v	*	*	*	*	*	*	*
=3	=3	=3	=3	=3	=3	=3	=3	=3	=3	=3	=3	=3	=3	=3	=3	=3	=3	=3	=3	=3	=3	=3	=3	=3	=3	=3	=3	=3	=3	=3	=3	=3	=3	=3	=3	=3
*	*	*	*	*	*	*	*	*	*2\right	*	*	*	*	*	*	*	*	*	*	*	*	*	*	*	*	*	*	*	*	*	*	*	*	*	*	*
!	!	!	!	!	!	!	!	!LO:DY:a	!	!	!	!	!	!LO:DY:a	!	!	!	!	!	!	!	!	!	!	!	!	!	!	!	!	!	!	!	!	!	!
.	.	.	.	2.AA\ 2.A	2a/ 2cc	2.AA/	.	<	(2A\	.	.	(2c\	San-	<	2a/	.	(2cc\	.	(2.AA/	.	2.A/	.	((2a/	.	(2cc\	<	1r	.	1r	.	1r	.	1r	.	1r	.
.	.	.	.	.	4cc\ 4ee	.	.	.	4c\	.	.	4e\	.	.	4cc\	.	4ee\	.	.	.	.	.	4cc\	.	4ee\	.	.	.	.	.	.	.	.	.	.	.
!	!	!	!	!	!	!	!	!LO:DY:a	!	!	!	!	!	!LO:DY:a	!	!	!	!	!	!	!	!	!	!	!	!	!	!	!	!	!	!	!	!	!	!
.	.	.	.	4C\ 4c	4a/ 4cc	4C/	.	[ >	4A\)	.	.	4c\)	.	[ > ]]	4a\	.	4cc\)	.	4C/)	.	4c/	.	4a/))	.	4cc\)	[[	.	.	.	.	.	.	.	.	.	.
=4	=4	=4	=4	=4	=4	=4	=4	=4	=4	=4	=4	=4	=4	=4	=4	=4	=4	=4	=4	=4	=4	=4	=4	=4	=4	=4	=4	=4	=4	=4	=4	=4	=4	=4	=4	=4
.	.	.	.	2.E\ 2.e	(4..g/ 4..b	2.E\	.	.	2.G/	.	.	2.B\	-ctus	.	2.g/	.	2.b\	.	2.E\	.	2.e\	.	(4..g/	.	(4..b\	>	1r	.	2.e/ 2.ee	p	1r	.	(4..gg\	.	(4..bb\	.
.	.	.	.	.	32f#/LLL 32a#X	.	.	]	.	.	.	.	.	.	.	.	.	.	.	.	.	.	32f#/LLL	.	32a#X\LLL	]	.	.	.	.	.	.	32ff#\LLL	.	32aa#X\LLL	.
.	.	.	.	.	32g/JJJ 32b	.	.	.	.	.	.	.	.	.	.	.	.	.	.	.	.	.	32g/JJJ	.	32b\JJJ	.	.	.	.	.	.	.	32gg\JJJ)	.	32bb\JJJ)	.
.	.	.	.	.	4g/) 4ee	.	.	.	.	.	.	.	.	.	.	.	.	.	.	.	.	.	4g/)	.	4ee\)	.	.	.	.	.	.	.	4gg\	.	4eee\	.
.	.	.	.	4r	4r	4r	.	.	4r	.	.	4r	.	.	4r	.	4r	.	4r	.	4r	.	4r	.	4r	.	.	.	4r	.	.	.	4r	.	4r	.
!!LO:PB:g=original
=5	=5	=5	=5	=5	=5	=5	=5	=5	=5	=5	=5	=5	=5	=5	=5	=5	=5	=5	=5	=5	=5	=5	=5	=5	=5	=5	=5	=5	=5	=5	=5	=5	=5	=5	=5	=5
*	*	*	*	*	*^	*	*	*	*	*	*	*	*	*	*	*	*	*	*	*	*	*	*	*	*	*	*	*	*	*	*^	*	*	*	*	*
*	*	*	*	*	*	*2\right	*	*	*	*	*	*	*	*	*	*	*	*	*	*	*	*tremolo	*	*tremolo	*	*tremolo	*	*	*	*	*	*	*2\right	*	*2\right	*	*	*
!	!	!	!	!	!	!	!	!	!LO:DY:a	!	!	!	!	!	!LO:DY:a	!	!	!	!LO:DY:a	!	!LO:DY:a	!	!	!	!	!	!	!	!	!	!	!	!	!	!	!LO:DY:a	!	!
4Ra/	4C/	4cc\ 4ee	f	2C\ 2c	1ee	2g\	2.C/	.	f	2G/	.	.	(1e	San-	f	2g/	.	1ee	f	2C/	f	32c\LLL	.	32g/LLL	.	32ee\LLL	f	[>2C/	.	1cc 1ee	f	1ee	2g\	f	2gg\	f	(1eee	.
.	.	.	.	.	.	.	.	.	.	.	.	.	.	.	.	.	.	.	.	.	.	32c\	.	32g/	.	32ee\	.	.	.	.	.	.	.	.	.	.	.	.
.	.	.	.	.	.	.	.	.	.	.	.	.	.	.	.	.	.	.	.	.	.	32c\	.	32g/	.	32ee\	.	.	.	.	.	.	.	.	.	.	.	.
.	.	.	.	.	.	.	.	.	.	.	.	.	.	.	.	.	.	.	.	.	.	32c\	.	32g/	.	32ee\	.	.	.	.	.	.	.	.	.	.	.	.
.	.	.	.	.	.	.	.	.	.	.	.	.	.	.	.	.	.	.	.	.	.	32c\	.	32g/	.	32ee\	.	.	.	.	.	.	.	.	.	.	.	.
.	.	.	.	.	.	.	.	.	.	.	.	.	.	.	.	.	.	.	.	.	.	32c\	.	32g/	.	32ee\	.	.	.	.	.	.	.	.	.	.	.	.
.	.	.	.	.	.	.	.	.	.	.	.	.	.	.	.	.	.	.	.	.	.	32c\	.	32g/	.	32ee\	.	.	.	.	.	.	.	.	.	.	.	.
.	.	.	.	.	.	.	.	.	.	.	.	.	.	.	.	.	.	.	.	.	.	32c\	.	32g/	.	32ee\	.	.	.	.	.	.	.	.	.	.	.	.
8.Ra/L	8.C/L	8.cc\L 8.ee	.	.	.	.	.	.	.	.	.	.	.	.	.	.	.	.	.	.	.	32c\	.	32g/	.	32ee\	.	.	.	.	.	.	.	.	.	.	.	.
.	.	.	.	.	.	.	.	.	.	.	.	.	.	.	.	.	.	.	.	.	.	32c\	.	32g/	.	32ee\	.	.	.	.	.	.	.	.	.	.	.	.
.	.	.	.	.	.	.	.	.	.	.	.	.	.	.	.	.	.	.	.	.	.	32c\	.	32g/	.	32ee\	.	.	.	.	.	.	.	.	.	.	.	.
.	.	.	.	.	.	.	.	.	.	.	.	.	.	.	.	.	.	.	.	.	.	32c\	.	32g/	.	32ee\	.	.	.	.	.	.	.	.	.	.	.	.
.	.	.	.	.	.	.	.	.	.	.	.	.	.	.	.	.	.	.	.	.	.	32c\	.	32g/	.	32ee\	.	.	.	.	.	.	.	.	.	.	.	.
.	.	.	.	.	.	.	.	.	.	.	.	.	.	.	.	.	.	.	.	.	.	32c\	.	32g/	.	32ee\	.	.	.	.	.	.	.	.	.	.	.	.
16Ra/Jk	16C/Jk	16cc\Jk 16ee	.	.	.	.	.	.	.	.	.	.	.	.	.	.	.	.	.	.	.	32c\	.	32g/	.	32ee\	.	.	.	.	.	.	.	.	.	.	.	.
.	.	.	.	.	.	.	.	.	.	.	.	.	.	.	.	.	.	.	.	.	.	32c\JJJ	.	32g/JJJ	.	32ee\	.	.	.	.	.	.	.	.	.	.	.	.
*	*	*	*	*	*	*	*	*	*	*	*	*	*	*	*	*2\right	*	*	*	*	*	*	*	*2\right	*	*	*	*	*	*	*	*	*	*	*	*	*	*
!	!	!	!	!	!	!LO:TX:t=P:problem:kreska taktowa:między nutą i kropką	!	!	!	!LO:TX:t=P:problem:kreska taktowa:między nutą i kropką	!	!	!	!	!	!LO:TX:t=P:problem:kreska taktowa:między nutą i kropką	!	!	!	!	!	!	!	!	!	!	!	!	!	!	!	!	!	!	!LO:TX:t=P:problem:kreska taktowa:między nutą a kropką	!	!	!
4Ra/	4C/	4cc\ 4ee	.	4C\	.	[2cc\	.	.	.	[y(2c\	.	.	.	.	.	[y(2cc\	.	.	.	4C/	.	32c\LLL	.	32cc\LLL	.	32ee\	.	4C/]	.	.	.	.	[2cc\	.	[y(2ccc\	.	.	.
.	.	.	.	.	.	.	.	.	.	.	.	.	.	.	.	.	.	.	.	.	.	32c\	.	32cc\	.	32ee\	.	.	.	.	.	.	.	.	.	.	.	.
.	.	.	.	.	.	.	.	.	.	.	.	.	.	.	.	.	.	.	.	.	.	32c\	.	32cc\	.	32ee\	.	.	.	.	.	.	.	.	.	.	.	.
.	.	.	.	.	.	.	.	.	.	.	.	.	.	.	.	.	.	.	.	.	.	32c\	.	32cc\	.	32ee\	.	.	.	.	.	.	.	.	.	.	.	.
.	.	.	.	.	.	.	.	.	.	.	.	.	.	.	.	.	.	.	.	.	.	32c\	.	32cc\	.	32ee\	.	.	.	.	.	.	.	.	.	.	.	.
.	.	.	.	.	.	.	.	.	.	.	.	.	.	.	.	.	.	.	.	.	.	32c\	.	32cc\	.	32ee\	.	.	.	.	.	.	.	.	.	.	.	.
.	.	.	.	.	.	.	.	.	.	.	.	.	.	.	.	.	.	.	.	.	.	32c\	.	32cc\	.	32ee\	.	.	.	.	.	.	.	.	.	.	.	.
.	.	.	.	.	.	.	.	.	.	.	.	.	.	.	.	.	.	.	.	.	.	32c\JJJ	.	32cc\	.	32ee\	.	.	.	.	.	.	.	.	.	.	.	.
4Ra/	4E\	4cc\ 4ee	.	4E\	.	.	4E\	.	.	.	.	.	.	.	.	.	.	.	.	4E\	.	32e\LLL	.	32cc\	.	32ee\	.	4E\	.	.	.	.	.	.	.	.	.	.
.	.	.	.	.	.	.	.	.	.	.	.	.	.	.	.	.	.	.	.	.	.	32e\	.	32cc\	.	32ee\	.	.	.	.	.	.	.	.	.	.	.	.
.	.	.	.	.	.	.	.	.	.	.	.	.	.	.	.	.	.	.	.	.	.	32e\	.	32cc\	.	32ee\	.	.	.	.	.	.	.	.	.	.	.	.
.	.	.	.	.	.	.	.	.	.	.	.	.	.	.	.	.	.	.	.	.	.	32e\	.	32cc\	.	32ee\	.	.	.	.	.	.	.	.	.	.	.	.
.	.	.	.	.	.	.	.	.	.	.	.	.	.	.	.	.	.	.	.	.	.	32e\	.	32cc\	.	32ee\	.	.	.	.	.	.	.	.	.	.	.	.
.	.	.	.	.	.	.	.	.	.	.	.	.	.	.	.	.	.	.	.	.	.	32e\	.	32cc\	.	32ee\	.	.	.	.	.	.	.	.	.	.	.	.
.	.	.	.	.	.	.	.	.	.	.	.	.	.	.	.	.	.	.	.	.	.	32e\	.	32cc\	.	32ee\	.	.	.	.	.	.	.	.	.	.	.	.
.	.	.	.	.	.	.	.	.	.	.	.	.	.	.	.	.	.	.	.	.	.	32e\JJJ	.	32cc\JJJ	.	32ee\JJJ	.	.	.	.	.	.	.	.	.	.	.	.
=6	=6	=6	=6	=6	=6	=6	=6	=6	=6	=6	=6	=6	=6	=6	=6	=6	=6	=6	=6	=6	=6	=6	=6	=6	=6	=6	=6	=6	=6	=6	=6	=6	=6	=6	=6	=6	=6	=6
*	*	*	*	*	*	*	*	*	*	*	*	*	*	*	*	*	*	*	*	*	*	*	*	*	*	*	*	*2\right	*	*	*	*	*	*	*	*	*2\right	*
!	!	!	!	!	!	!LO:N:xstem:cue	!	!	!	!LO:N:xstem:cue	!	!	!	!	!	!LO:N:xstem:cue	!	!	!	!	!	!	!	!	!	!	!	!	!	!	!	!	!LO:N:xstem:cue	!	!LO:N:xstem:cue	!	!	!
2ReT/	2.G/	2.g/ 2.dd	.	2.G\	2.dd/	4cc\]	2.G\	.	.	4c\]	.	.	2.d\)	.	.	4cc\]	.	2.dd\	.	2.G\	.	32g\LLL	.	32cc\LLL	.	32dd\LLL	.	2.G\	.	2.g/ 2.dd	.	2.dd/	4cc\]	.	4ccc]	.	2.ddd\	.
.	.	.	.	.	.	.	.	.	.	.	.	.	.	.	.	.	.	.	.	.	.	32g\	.	32cc\	.	32dd\	.	.	.	.	.	.	.	.	.	.	.	.
.	.	.	.	.	.	.	.	.	.	.	.	.	.	.	.	.	.	.	.	.	.	32g\	.	32cc\	.	32dd\	.	.	.	.	.	.	.	.	.	.	.	.
.	.	.	.	.	.	.	.	.	.	.	.	.	.	.	.	.	.	.	.	.	.	32g\	.	32cc\	.	32dd\	.	.	.	.	.	.	.	.	.	.	.	.
.	.	.	.	.	.	.	.	.	.	.	.	.	.	.	.	.	.	.	.	.	.	32g\	.	32cc\	.	32dd\	.	.	.	.	.	.	.	.	.	.	.	.
.	.	.	.	.	.	.	.	.	.	.	.	.	.	.	.	.	.	.	.	.	.	32g\	.	32cc\	.	32dd\	.	.	.	.	.	.	.	.	.	.	.	.
.	.	.	.	.	.	.	.	.	.	.	.	.	.	.	.	.	.	.	.	.	.	32g\	.	32cc\	.	32dd\	.	.	.	.	.	.	.	.	.	.	.	.
.	.	.	.	.	.	.	.	.	.	.	.	.	.	.	.	.	.	.	.	.	.	32g\	.	32cc\JJJ	.	32dd\	.	.	.	.	.	.	.	.	.	.	.	.
.	.	.	.	.	.	8b\L	.	.	.	8B\L)	.	.	.	.	.	8b\L	.	.	.	.	.	32g\	.	32b\LLL	.	32dd\	.	.	.	.	.	.	8b\L	.	8bb\L	.	.	.
.	.	.	.	.	.	.	.	.	.	.	.	.	.	.	.	.	.	.	.	.	.	32g\	.	32b\	.	32dd\	.	.	.	.	.	.	.	.	.	.	.	.
.	.	.	.	.	.	.	.	.	.	.	.	.	.	.	.	.	.	.	.	.	.	32g\	.	32b\	.	32dd\	.	.	.	.	.	.	.	.	.	.	.	.
.	.	.	.	.	.	.	.	.	.	.	.	.	.	.	.	.	.	.	.	.	.	32g\	.	32b\	.	32dd\	.	.	.	.	.	.	.	.	.	.	.	.
.	.	.	.	.	.	8a\J	.	.	.	8A\J	.	.	.	.	.	8a\J)	.	.	.	.	.	32g\	.	32a\	.	32dd\	.	.	.	.	.	.	8a\J	.	8aa\J	.	.	.
.	.	.	.	.	.	.	.	.	.	.	.	.	.	.	.	.	.	.	.	.	.	32g\	.	32a\	.	32dd\	.	.	.	.	.	.	.	.	.	.	.	.
.	.	.	.	.	.	.	.	.	.	.	.	.	.	.	.	.	.	.	.	.	.	32g\	.	32a\	.	32dd\	.	.	.	.	.	.	.	.	.	.	.	.
.	.	.	.	.	.	.	.	.	.	.	.	.	.	.	.	.	.	.	.	.	.	32g\	.	32a\JJJ	.	32dd\	.	.	.	.	.	.	.	.	.	.	.	.
4Re/	.	.	.	.	.	2b\	.	.	.	4B\	.	.	.	.	.	4b\	.	.	.	.	.	32g\	.	32b\LLL	.	32dd\	.	.	.	.	.	.	4b\	.	4bb\)	.	.	.
.	.	.	.	.	.	.	.	.	.	.	.	.	.	.	.	.	.	.	.	.	.	32g\	.	32b\	.	32dd\	.	.	.	.	.	.	.	.	.	.	.	.
.	.	.	.	.	.	.	.	.	.	.	.	.	.	.	.	.	.	.	.	.	.	32g\	.	32b\	.	32dd\	.	.	.	.	.	.	.	.	.	.	.	.
.	.	.	.	.	.	.	.	.	.	.	.	.	.	.	.	.	.	.	.	.	.	32g\	.	32b\	.	32dd\	.	.	.	.	.	.	.	.	.	.	.	.
.	.	.	.	.	.	.	.	.	.	.	.	.	.	.	.	.	.	.	.	.	.	32g\	.	32b\	.	32dd\	.	.	.	.	.	.	.	.	.	.	.	.
.	.	.	.	.	.	.	.	.	.	.	.	.	.	.	.	.	.	.	.	.	.	32g\	.	32b\	.	32dd\	.	.	.	.	.	.	.	.	.	.	.	.
.	.	.	.	.	.	.	.	.	.	.	.	.	.	.	.	.	.	.	.	.	.	32g\	.	32b\	.	32dd\	.	.	.	.	.	.	.	.	.	.	.	.
.	.	.	.	.	.	.	.	.	.	.	.	.	.	.	.	.	.	.	.	.	.	32g\JJJ	.	32b\	.	32dd\JJJ	.	.	.	.	.	.	.	.	.	.	.	.
4r	4r	4r	.	4G#X\	4ee/	.	4G#X\	.	.	4B\	.	.	4e\	-ctus	.	4b\	.	4ee\	.	4G#X\	.	32g#X\LLL	.	32b\	.	32ee\LLL	.	4G#X\	.	4r	.	4ee/	4b\	.	4bb\	.	4eee\)	.
.	.	.	.	.	.	.	.	.	.	.	.	.	.	.	.	.	.	.	.	.	.	32g#\	.	32b\	.	32ee\	.	.	.	.	.	.	.	.	.	.	.	.
.	.	.	.	.	.	.	.	.	.	.	.	.	.	.	.	.	.	.	.	.	.	32g#\	.	32b\	.	32ee\	.	.	.	.	.	.	.	.	.	.	.	.
.	.	.	.	.	.	.	.	.	.	.	.	.	.	.	.	.	.	.	.	.	.	32g#\	.	32b\	.	32ee\	.	.	.	.	.	.	.	.	.	.	.	.
.	.	.	.	.	.	.	.	.	.	.	.	.	.	.	.	.	.	.	.	.	.	32g#\	.	32b\	.	32ee\	.	.	.	.	.	.	.	.	.	.	.	.
.	.	.	.	.	.	.	.	.	.	.	.	.	.	.	.	.	.	.	.	.	.	32g#\	.	32b\	.	32ee\	.	.	.	.	.	.	.	.	.	.	.	.
.	.	.	.	.	.	.	.	.	.	.	.	.	.	.	.	.	.	.	.	.	.	32g#\	.	32b\	.	32ee\	.	.	.	.	.	.	.	.	.	.	.	.
.	.	.	.	.	.	.	.	.	.	.	.	.	.	.	.	.	.	.	.	.	.	32g#\JJJ	.	32b\JJJ	.	32ee\JJJ	.	.	.	.	.	.	.	.	.	.	.	.
*	*	*	*	*	*	*	*	*	*	*	*	*	*	*	*	*	*	*	*	*	*	*Xtremolo	*	*Xtremolo	*	*Xtremolo	*	*	*	*	*	*	*	*	*	*	*	*
=7	=7	=7	=7	=7	=7	=7	=7	=7	=7	=7	=7	=7	=7	=7	=7	=7	=7	=7	=7	=7	=7	=7	=7	=7	=7	=7	=7	=7	=7	=7	=7	=7	=7	=7	=7	=7	=7	=7
1r	1r	1r	.	8A\L	8cc/L	2a\	(8A\L	.	.	4A/	.	.	(8c\L	Do-	.	4a/	.	(8cc\L	.	(8A\L	.	(8a\L	.	[4a/	.	(8cc\L	.	(8A\L	.	1r	.	(8cc/L	4a\	.	[4aa\	.	(8ccc\L	.
.	.	.	.	8Gn\J	8cc#X/	.	8Gn\J)	.	.	.	.	.	8c#X\J)	.	.	.	.	8cc#X\J	.	8G\J	.	8gn\J	.	.	.	8cc#X\	.	8Gn\J)	.	.	.	8cc#X/)	.	.	.	.	8ccc#X\)	.
.	.	.	.	4F#\	8dd/	.	8F#\	.	.	8A/	.	.	8d\	-mi-	.	8a/	.	8dd\)	.	4F#\)	.	4f#\)	p	8a/L]	.	8dd\)	.	4F#\	p	.	.	8dd'/	8a\L	.	8aa\L]	.	8ddd'\	.
!	!	!	!	!	!	!	!	!	!	!	!	!	!	!	!LO:DY:a	!	!	!	!LO:DY:a	!	!	!	!	!	!	!	!	!	!	!	!	!	!	!	!	!	!	!
.	.	.	.	.	8ccn/J	.	8F#\	.	.	8A/	.	.	8cn\	-nus	p	8a/	.	8ccn\	p	.	.	.	.	8a/J	.	8ccn\J	p	.	.	.	.	8cc#'/J	8a\J	.	8aa\J	.	8cccn'\J	p
.	.	.	.	8G\L	8b/L	8g\L	8G\L	.	.	8G/L	.	.	(8B\L	De-	.	8g/L	.	(8b\L	.	(8G\L	.	(8g\L	.	(8g/L	.	(8b/L	.	(8G\L	.	.	.	2r	2ryy	.	(8gg\L	.	(8bb\L	.
.	.	.	.	8F#\	8dd/	8a\	8F#\	.	.	8A/	.	.	8d\	.	.	8a/	.	8dd\	.	8F#\	.	8f#\	.	8a/	.	8dd/	.	8F#\	.	.	.	.	.	.	8aa\	.	8ddd\	.
.	.	.	.	8E\	8g/	8g\	8E\J	.	.	8G/J	.	.	8G\J)	.	.	8g/J	.	8g\J)	.	8E\)	.	8e\)	.	8g/)	.	8g/)	.	8E\)	.	.	.	.	.	.	8gg\)	.	8gg\)	.
.	.	.	.	8C\J	8cc/J	8a\J	8C/	.	.	8A/	.	.	8c\	-us	.	8a/	.	8cc\	.	8C'\J	.	8c'\J	.	8a/J	.	8cc'/J	.	8C\J	.	.	.	.	.	.	8aa'\J	.	8ccc'\J	.
*	*	*	*	*	*v	*v	*	*	*	*	*	*	*	*	*	*	*	*	*	*	*	*	*	*	*	*	*	*	*	*	*	*	*	*	*	*	*	*
=8	=8	=8	=8	=8	=8	=8	=8	=8	=8	=8	=8	=8	=8	=8	=8	=8	=8	=8	=8	=8	=8	=8	=8	=8	=8	=8	=8	=8	=8	=8	=8	=8	=8	=8	=8	=8	=8
1r;	2r	2r	.	2D\	8g/L 8b	4.D\	.	.	8G/L	.	.	(8B\L	sa-	.	8g/L	.	(8b\L	.	2D\	.	2d\	.	(8g/L	.	(8b\L	.	2D\	.	2r	.	2r	2ryy	.	(8gg\L	.	(8bb\L	.
.	.	.	.	.	8b/ 8dd	.	.	.	8B/	.	.	8d\	.	.	8b/	.	8dd\	.	.	.	.	.	8b/	.	8dd\	.	.	.	.	.	.	.	.	8bb\)	.	8ddd\	.
.	.	.	.	.	8a/ 8cc	.	.	.	8A/J	.	.	8c\J)	.	.	8a/J	.	8cc\J)	.	.	.	.	.	8a/)	.	8cc\)	.	.	.	.	.	.	.	.	8aa'\	.	8ccc\)	.
!	!	!	!	!	!	!	!	!	!	!	!	!	!	!	!	!	!	!LO:HP:a	!	!	!	!	!	!	!	!	!	!	!	!	!	!	!	!	!	!	!
.	.	.	.	.	8g/J 8b	8D\	.	.	8G/	.	.	8B\	-ba-	.	8g/	.	8b\	>]	.	.	.	.	8g'/J	.	8b'\J	.	.	.	.	.	.	.	.	8gg'\J	.	8bb'\J	.
*	*2\right	*2\right	*	*	*	*	*	*	*	*	*	*	*	*	*	*	*	*	*	*	*	*	*	*	*	*	*	*	*	*	*	*	*	*	*	*	*
!	!	!	!	!	!	!LO:TX:t=P:problem: > za nutą	!	!	!LO:TX:t=P:problem: > za nutą	!	!	!	!	!	!	!	!	!	!	!	!	!	!	!	!	!	!	!LO:HP:a	!	!	!	!	!	!	!LO:HP:a	!	!
.	2D;\	2dd^;/	.	2D;\	2f#;/ 2a	2D;\	.	>]	2F#;/	.	>]	2A;\	-oth.	>]	2f#;/	.	2a;/	.	2D;\	.	2d;\	.	2f#;/	.	2a;/	.	2D;\	>]	2f#X;/ 2dd	.	2dd;/	2a\	.	2ff#;\	>]	2aa;\	.
*	*	*	*	*	*	*	*	*	*	*	*	*	*	*	*	*	*	*	*	*	*	*	*	*	*	*	*	*	*	*	*v	*v	*	*	*	*	*
!LO:LB:g=original	!LO:LB:g=original	!LO:LB:g=original	!	!	!	!	!	!	!	!	!	!	!	!	!	!	!	!	!	!	!	!	!	!	!	!	!	!	!	!	!	!	!	!	!	!
!!LO:PB:g=original
=9||	=9||	=9||	=9||	=9||	=9||	=9||	=9||	=9||	=9||	=9||	=9||	=9||	=9||	=9||	=9||	=9||	=9||	=9||	=9||	=9||	=9||	=9||	=9||	=9||	=9||	=9||	=9||	=9||	=9||	=9||	=9||	=9||	=9||	=9||	=9||	=9||
*M6/8	*M6/8	*M6/8	*	*M6/8	*M6/8	*M6/8	*	*	*M6/8	*	*	*M6/8	*	*	*M6/8	*	*M6/8	*	*M6/8	*	*M6/8	*	*M6/8	*	*M6/8	*	*M6/8	*	*M6/8	*	*M6/8	*	*M6/8	*	*M6/8	*
*	*	*	*	*	*	*	*	*	*	*	*	*	*	*	*	*	*	*	*	*	*	*	*	*	*	*	*	*	*	*	*^	*	*	*	*	*
!	!	!LO:TX:a:t=Allegro mod(era)to	!	!	!	!	!	!	!	!	!	!	!	!LO:DY:a	!	!	!	!LO:DY:a	!	!	!	!	!	!	!	!	!	!	!	!	!	!	!	!	!	!LO:TX:a:t=Allegro moderato.	!
2.r	2.r	2.r	.	2.r	4g/	2.r	.	.	2.r	.	.	(4G/	Ple-	f	2.r	.	4g/	f	2.r	.	2.r	.	2.r	.	4g/	f	2.r	.	2.r	.	4g/	2.r	.	2.r	.	4gg\	.
.	.	.	.	.	8dd\	.	.	.	.	.	.	8d\)	.	.	.	.	8dd\	.	.	.	.	.	.	.	8dd\	.	.	.	.	.	8dd/	.	.	.	.	8ddd\	.
.	.	.	.	.	8b/L	.	.	.	.	.	.	(8B/L	-ni	.	.	.	(8b/L	.	.	.	.	.	.	.	(8b/L	.	.	.	.	.	(<8b/L	.	.	.	.	(8bb\L	.
.	.	.	.	.	8a/	.	.	.	.	.	.	8A/J)	.	.	.	.	8a/J)	.	.	.	.	.	.	.	8a/)	.	.	.	.	.	8a/)	.	.	.	.	8aa\)	.
.	.	.	.	.	8g/J	.	.	.	.	.	.	8G/	sunt	.	.	.	8g/	.	.	.	.	.	.	.	8g'/J	.	.	.	.	.	8g'</J	.	.	.	.	8gg'\J	.
=10	=10	=10	=10	=10	=10	=10	=10	=10	=10	=10	=10	=10	=10	=10	=10	=10	=10	=10	=10	=10	=10	=10	=10	=10	=10	=10	=10	=10	=10	=10	=10	=10	=10	=10	=10	=10	=10
*	*	*	*	*	*^	*	*	*	*	*	*	*	*	*	*	*	*^	*	*	*	*	*	*	*	*	*	*	*	*^	*	*	*	*	*	*	*	*
*	*	*^	*	*	*	*	*	*	*	*	*	*	*	*	*	*	*	*	*	*	*	*	*	*	*	*	*	*	*	*	*	*	*	*	*	*	*	*	*	*
!	!	!	!	!	!	!	!	!	!	!LO:DY:a	!	!	!	!	!	!	!	!	!	!	!	!	!	!	!	!	!	!	!	!	!	!	!	!	!	!	!	!	!	!	!
2.r	(>4D\	4.dd/	4.dd\	f	4D\	[4.dd/	4f#\	(4D\	Ple-	f	(4F#/	.	f	[4.d\	cae-	.	4f#/	.	[4.dd/	4.dd\	.	(4D\	.	4.d\	f	(4f#/	f	4.dd\	.	4D\	.	4.dd/	4.dd\	f	4.dd/	4f#\	.	(4ff#\	.	[4.ddd\	.
.	8E\	.	.	.	8E\	.	8g\	8E\)	.	.	8G/)	.	.	.	.	.	8g/	.	.	.	.	8E\)	.	.	.	8g/)	.	.	.	8E\	.	.	.	.	.	8g\	.	8gg\)	.	.	.
.	4F#\)	4.dd/	4.dd\	.	4.F#\	4dd/]	4.a\	4F#\	-ni	.	4A/	.	.	4d\]	.	.	4a/	.	4dd\]	4ryy	.	4F#\	.	4d\	.	4a/	.	4dd\	.	4F#\	.	4.dd/	4.dd\	.	4dd/	4a\	.	4aa\	.	4ddd\]	.
.	8F#\	.	.	.	.	8cc/	.	8F#\	sunt	.	8A/	.	.	8c\	-li	.	8a/	.	8cc\	8ryy	.	8F#\	.	8d\	.	8a/	.	8cc\	.	8F#\	.	.	.	.	8cc/	8a\	.	8aa\	.	8ccc\	.
*	*	*v	*v	*	*	*	*	*	*	*	*	*	*	*	*	*	*	*	*	*	*	*	*	*	*	*	*	*	*	*	*	*	*	*	*	*	*	*	*	*	*
*	*	*	*	*	*v	*v	*	*	*	*	*	*	*	*	*	*	*	*v	*v	*	*	*	*	*	*	*	*	*	*	*	*v	*v	*	*	*	*	*	*	*	*
=11	=11	=11	=11	=11	=11	=11	=11	=11	=11	=11	=11	=11	=11	=11	=11	=11	=11	=11	=11	=11	=11	=11	=11	=11	=11	=11	=11	=11	=11	=11	=11	=11	=11	=11	=11	=11	=11
2.r	4.G\	4.g/ 4.dd	.	4.G\	4g/ 4b	4.G\	cae-	.	4.B\	.	.	(4B\	cae-	.	4.g/	.	(4b\	.	4.G\	.	4.B/	.	4.g/	.	4b\	.	4.G\	.	4.g/ 4.dd	.	4b/	[4.g\	.	[4.gg\	.	4bb\	.
.	.	.	.	.	8b\ 8dd	.	.	.	.	.	.	8d\)	.	.	.	.	8dd\)	.	.	.	.	.	.	.	8dd\	.	.	.	.	.	8dd/	.	.	.	.	8ddd\	.
.	4G\	4g/ 4dd	.	4G\	16cc/LL	4G\	-li	.	4d\	.	.	16B/LL	-li	.	4g/	.	(16cc/LL	.	4GG/	.	4d\	.	4g/	.	16cc/LL	.	4G\	.	4g/ 4dd	.	16cc/LL	4g\]	.	4gg\]	.	(16ccc\LL	.
.	.	.	.	.	16b/J	.	.	.	.	.	.	16A/J	.	.	.	.	16b/J	.	.	.	.	.	.	.	16b/J	.	.	.	.	.	16b/J	.	.	.	.	16bb\J	.
.	.	.	.	.	8a/	.	.	.	.	.	.	8G/J	.	.	.	.	8a/)	.	.	.	.	.	.	.	8a/	.	.	.	.	.	8a/	.	.	.	.	8aa\)	.
.	8r	8r	.	8r	8g/J	8r	.	.	8r	.	.	8F#/	et	.	8r	.	8g|/J	.	8r	.	8r	.	8r	.	8g/J	.	8r	.	8r	.	8g/J	8r	.	8r	.	8gg\J	.
=12	=12	=12	=12	=12	=12	=12	=12	=12	=12	=12	=12	=12	=12	=12	=12	=12	=12	=12	=12	=12	=12	=12	=12	=12	=12	=12	=12	=12	=12	=12	=12	=12	=12	=12	=12	=12	=12
*	*	*	*	*	*^	*	*	*	*	*	*	*	*	*	*	*	*	*	*	*	*	*	*	*	*	*	*	*	*^	*	*	*	*	*	*	*	*
*	*	*^	*	*	*	*	*	*	*	*	*	*	*	*	*	*	*	*	*	*	*	*	*	*	*	*	*	*	*	*	*	*	*	*	*	*	*	*	*
2.r	(>8D\J	4.dd/	4.dd\	.	4D\	[4.dd/	4f#\	8D\	cae-	.	8F#/	cae-	.	[4.d\	ter-	.	8f#/	.	[4.dd\	.	8D'\L	.	4.d\	.	8f#'/L	.	4.dd\	.	8D\L	.	4.dd/	4.dd\	.	[4.dd/	8f#\L	.	8ff#'\L	.	[4.ddd\	.
.	8D\	.	.	.	.	.	.	8D\	-li	.	8F#/	-li	.	.	.	.	8f#/	.	.	.	(8D\	.	.	.	(8f#/	.	.	.	8D\	.	.	.	.	.	8f#\	.	(8ff#\	.	.	.
.	8E\J	.	.	.	8E\	.	8g\	8E\	et	.	8G/	et	.	.	.	.	8g/	.	.	.	8E\J	.	.	.	8g/J)	.	.	.	8E\J	.	.	.	.	.	8g\J	.	8gg\J)	.	.	.
.	4.F#\)	4.dd/	4.dd\	.	4.F#\	4dd/]	4.a\	4.F#\	ter-	.	4A/	ter-	.	4d\]	.	.	4a/	.	4dd\]	.	4F#\)	.	4d\	.	4a/	.	4dd\	.	4F#\	.	4.dd/	4.dd\	.	4dd/]	4a\	.	4aa\	.	4ddd\]	.
.	.	.	.	.	.	8cc/	.	.	.	.	8A/	-ra	.	8c\	-ra	.	8a/	.	8cc\	.	8F#\	.	8d\	.	8a/	.	8cc\	.	8F#\	.	.	.	.	8cc/	8a\	.	8aa\	.	8ccc\	.
*	*	*v	*v	*	*	*	*	*	*	*	*	*	*	*	*	*	*	*	*	*	*	*	*	*	*	*	*	*	*	*	*	*	*	*	*	*	*	*	*	*
*	*	*	*	*	*	*	*	*	*	*	*	*	*	*	*	*	*	*	*	*	*	*	*	*	*	*	*	*	*	*v	*v	*	*	*	*	*	*	*	*
*	*	*	*	*	*v	*v	*	*	*	*	*	*	*	*	*	*	*	*	*	*	*	*	*	*	*	*	*	*	*	*	*	*v	*v	*	*	*	*	*
!LO:LB:g=original	!LO:LB:g=original	!LO:LB:g=original	!	!	!	!	!	!	!	!	!	!	!	!	!	!	!	!	!	!	!	!	!	!	!	!	!	!	!	!	!	!	!	!	!	!
!!LO:PB:g=original
=13	=13	=13	=13	=13	=13	=13	=13	=13	=13	=13	=13	=13	=13	=13	=13	=13	=13	=13	=13	=13	=13	=13	=13	=13	=13	=13	=13	=13	=13	=13	=13	=13	=13	=13	=13	=13
2.r	4G\	4g/ 4dd	.	4G\	8.g/L 8.b	4G\	-ra	.	8.G/	.	.	8.B\	glo-	.	8.g/	.	8.b\	.	4G\	.	4g\	.	8.g/L	.	8.b\L	.	4G\	.	4g/ 4dd	.	8.g/L 8.b	.	8.gg\L	.	8.bb\L	.
.	.	.	.	.	16a/K 16cc	.	.	.	16A/	.	.	16c\	-ri-	.	16a/	.	16cc\	.	.	.	.	.	16a/K	.	16cc\K	.	.	.	.	.	16a/K 16cc	.	16aa\K	.	16ccc\K	.
.	8r	8r	.	8r	8b/J 8dd	8r	.	.	8B\	.	.	8d\	-a	.	8b/	.	8dd\	.	8r	.	8r	.	8b/J	.	8dd\J	.	8r	.	8r	.	8b/J 8dd	.	8bb\J	.	8ddd\J	.
.	4r	4r	.	4r	8.b\L 8.dd	4r	.	.	8.B\	.	.	8.d\	glo-	.	8.b\	.	8.dd\	.	4r	.	4r	.	8.b\L	.	8.dd\L	.	4r	.	4r	.	8.b\L 8.dd	.	8.bb\L	.	8.ddd\L	.
.	.	.	.	.	16cc\K 16ee	.	.	.	16c\	.	.	16e\	-ri-	.	16cc\	.	16ee\	.	.	.	.	.	16cc\K	.	16ee\K	.	.	.	.	.	16cc\K 16ee	.	16ccc\K	.	16eee\K	.
.	8r	8r	.	8r	8dd\J 8ffn	8r	.	.	8d\	.	.	8fn\	-a	.	8dd\	.	8ffn\	.	8r	.	8r	.	8dd\J	.	8ffn\J	.	8r	.	8r	.	8dd\J 8ffn	.	8ddd\J	.	8fffn\J	.
=14	=14	=14	=14	=14	=14	=14	=14	=14	=14	=14	=14	=14	=14	=14	=14	=14	=14	=14	=14	=14	=14	=14	=14	=14	=14	=14	=14	=14	=14	=14	=14	=14	=14	=14	=14	=14
!	!	!LO:TX:b:t=7	!	!	!	!	!	!	!	!	!	!	!	!	!	!	!	!	!	!	!	!	!	!	!	!	!	!	!	!	!	!	!	!	!	!
2.r	2.r	2.r	.	8.G\L	4.dd\ 4.ffn	8.G\	glo-	.	(4.d\	.	.	(4.fn\	tu-	.	4.dd\	.	(4.ffn\	.	8.G\L	.	8.g\L	.	4.dd\	.	4.ffn\	.	8.G\L	.	2.r	.	4.dd\ 4.ffn	.	4.ddd\	.	(4.fffn\	.
.	.	.	.	16F#\K	.	16F#\	-ri-	.	.	.	.	.	.	.	.	.	.	.	16F#\K	.	16f#\K	.	.	.	.	.	16F#\K	.	.	.	.	.	.	.	.	.
.	.	.	.	8G\J	.	8G\	-a	.	.	.	.	.	.	.	.	.	.	.	8G\J	.	8g\J	.	.	.	.	.	8G\J	.	.	.	.	.	.	.	.	.
.	.	.	.	8.G\L	4.b\ 4.dd#X	8.G\	glo-	.	4.B\)	.	.	4.d#X\)	.	.	4.b\	.	4.dd#X\)	.	8.G\L	.	8.g\L	.	4.b\	.	4.dd#X\	.	8.G\L	.	.	.	4.b\ 4.dd#X	.	4.bb\	.	4.ddd#X\)	.
.	.	.	.	16F#\K	.	16F#\	-ri-	.	.	.	.	.	.	.	.	.	.	.	16F#\K	.	16f#\K	.	.	.	.	.	16F#\K	.	.	.	.	.	.	.	.	.
.	.	.	.	8G\J	.	8G\	-a	.	.	.	.	.	.	.	.	.	.	.	8G\J	.	8g\J	.	.	.	.	.	8G\J	.	.	.	.	.	.	.	.	.
=15	=15	=15	=15	=15	=15	=15	=15	=15	=15	=15	=15	=15	=15	=15	=15	=15	=15	=15	=15	=15	=15	=15	=15	=15	=15	=15	=15	=15	=15	=15	=15	=15	=15	=15	=15	=15
2.r	2.r	2.r	.	4C/	4.cc\ 4.ee	8C/	tu-	.	4c\	.	.	4e\	-a	.	4cc\	.	4ee\	.	4C/	.	4c/	.	4cc\	.	4ee\	.	4C/	.	4.cc\ 4.ee	.	4cc\ 4ee	.	4ccc\	.	4eee\	.
.	.	.	.	.	.	8C/	-a	.	.	.	.	.	.	.	.	.	.	.	.	.	.	.	.	.	.	.	.	.	.	.	.	.	.	.	.	.
.	.	.	.	16C/LL	.	(16C/LL	o-	.	8c\	.	.	8e\	o-	.	8cc\	.	8ee\	.	(16C/LL	.	(16c/LL	.	8cc\	.	8ee\	.	16C/LL	.	.	.	8cc\ 8ee	.	8ccc\	.	8eee\	.
.	.	.	.	16BB/JJ	.	16BB/JJ)	.	.	.	.	.	.	.	.	.	.	.	.	16BB/JJ)	.	16B/JJ)	.	.	.	.	.	16BB/JJ	.	.	.	.	.	.	.	.	.
.	.	.	.	8.AA/L	8.cc\L 8.ee	8.AA/L	-san-	.	8.c\L	.	.	8.e\L	-san-	.	8.cc/L	.	8.ee\L	.	8.AA/L	.	8.A/L	.	8.cc\L	.	8.ee\L	.	8.AA/L	.	4r	.	8.cc\L 8.ee	.	8.ccc\L	.	8.eee\L	.
.	.	.	.	16BB/K	16b\K 16dd	16BB/Jk	.	.	16B\Jk	.	.	16d\Jk	.	.	16b/Jk	.	16dd\Jk	.	16BB/K	.	16B/K	.	16b\K	.	16dd\K	.	16BB/K	.	.	.	16b\K 16dd	.	16bb\K	.	16ddd\K	.
.	.	.	.	8C/J	8a\J 8cc	8C/	-na	.	8A\	.	.	8c\	-na	.	8a/	.	8cc\	.	8C/J	.	8c/J	.	8a\J	.	8cc\J	.	8C/J	.	8r	.	8a\J 8cc	.	8aa\J	.	8ccc\J	.
=16	=16	=16	=16	=16	=16	=16	=16	=16	=16	=16	=16	=16	=16	=16	=16	=16	=16	=16	=16	=16	=16	=16	=16	=16	=16	=16	=16	=16	=16	=16	=16	=16	=16	=16	=16	=16
*	*	*	*	*	*	*	*	*	*	*	*	*	*	*	*	*	*	*	*	*	*	*	*	*	*	*	*	*	*^	*	*	*	*	*	*	*
2.r	2.r	2.r	.	4.D/	8g\L 8b	4D\	in	.	8G\L	.	.	8B\L	in	.	8g/L	.	8b\L	.	4D\	.	4d\	.	(8g/L	.	(8b\L	.	4.D\	.	4.dd/	4.dd\	.	(8g\L 8b	.	(8gg\L	.	(8bb\L	.
.	.	.	.	.	8cc\ 8ee	.	.	.	8c\J	.	.	8e\J	.	.	8cc/J	.	8ee\J	.	.	.	.	.	8cc/	.	8ee\	.	.	.	.	.	.	8cc\ 8ee	.	8ccc\	.	8eee\	.
.	.	.	.	.	8b\J 8dd	8D\	ex-	.	8B\	.	.	8d\	ex-	.	8b\	.	8dd\	.	8D\	.	8d\	.	8b/J)	.	8dd\J)	.	.	.	.	.	.	8b\J) 8dd	.	8bb\J)	.	8ddd\J)	.
.	.	.	.	4.DD/ 4.D	16b/LL 16dd	4.D\	-cael-	.	16B/LL	.	.	(16d\LL	-cael-	.	(16b/LL	.	(16dd/LL	.	4.D\	.	4.d\	.	(16b/LL	.	(16dd/LL	.	4.D\	.	4.dd/	4.dd\	.	(16b/LL 16dd	.	(16bb\LL	.	(16ddd\LL	.
.	.	.	.	.	16a/J 16cc	.	.	.	16A/J	.	.	16c\J	.	.	16a/J	.	16cc/J	.	.	.	.	.	16a/J	.	16cc/J	.	.	.	.	.	.	16a/J 16cc	.	16aa\J	.	16ccc\J	.
.	.	.	.	.	8g/ 8b	.	.	.	8G/	.	.	8B\	.	.	8g/	.	8b/	.	.	.	.	.	8g/	.	8b/	.	.	.	.	.	.	8g/ 8b	.	8gg\	.	8bb\	.
.	.	.	.	.	8f#/J 8a	.	.	.	8F#/J	.	.	8A\J)	.	.	8f#/J)	.	8a/J)	.	.	.	.	.	8f#/J)	.	8a/J)	.	.	.	.	.	.	8f#/J) 8a	.	8ff#\J)	.	8aa\J)	.
*	*	*	*	*	*	*	*	*	*	*	*	*	*	*	*	*	*	*	*	*	*	*	*	*	*	*	*	*	*v	*v	*	*	*	*	*	*	*
!!LO:PB:g=original
=17	=17	=17	=17	=17	=17	=17	=17	=17	=17	=17	=17	=17	=17	=17	=17	=17	=17	=17	=17	=17	=17	=17	=17	=17	=17	=17	=17	=17	=17	=17	=17	=17	=17	=17	=17	=17
2.r	2.r	2.r	.	4GG/	4g/ 4b	4GG/	-sis	.	4G/	.	.	4B\	-sis	.	4g/	.	4b/	.	4GG/	.	4G/	.	4g/	.	4b/	.	4GG/	.	4g/ 4dd	.	4g/ 4b	.	4gg\	.	4bb\	.
.	.	.	.	8D/	8r	8D/	O-	.	8r	.	.	8r	.	.	8r	.	8r	.	8D/	.	8d\	.	8r	.	8r	.	8D/	.	8r	.	8r	.	8r	.	8r	.
.	.	.	.	8BB/L	4r	8BB/L	-san-	.	4r	.	.	4r	.	.	4r	.	4r	.	(8BB/L	.	(8B/L	.	4r	.	4r	.	(8BB/L	.	4r	.	4r	.	4r	.	4r	.
.	.	.	.	8AA/	.	8AA/J	.	.	.	.	.	.	.	.	.	.	.	.	8AA/)	.	8A/)	.	.	.	.	.	8AA/)	.	.	.	.	.	.	.	.	.
.	.	.	.	8GG/J	8g/ 8b	8GG/	-na	.	8G/	.	.	8B\	O-	.	8g/	.	8b/	.	8GG'/J	.	8G'/J	.	8g/	.	8b/	.	8GG'/J	.	8r	.	8g/ 8b	.	8gg\	.	8bb\	.
=18	=18	=18	=18	=18	=18	=18	=18	=18	=18	=18	=18	=18	=18	=18	=18	=18	=18	=18	=18	=18	=18	=18	=18	=18	=18	=18	=18	=18	=18	=18	=18	=18	=18	=18	=18	=18
2.r	2.r	2.r	.	4.D\	4f#/ 4a	4D\	in	.	4F#/	.	.	4A\	-san-	.	4f#/	.	4a/	.	4.D\	.	4.d\	.	4f#/	.	4a/	.	4.D\	.	2.r	.	4f#/ 4a	.	4ff#\	.	4aa\	.
.	.	.	.	.	8g/ 8b	8D\	ex-	.	8G/	.	.	8B\	-na	.	8g/	.	8b/	.	.	.	.	.	8g/	.	8b/	.	.	.	.	.	8g/ 8b	.	8gg\	.	8bb\	.
.	.	.	.	4.DD/ 4.D	8a\L 8cc	4.D\	-cael-	.	8A\L	.	.	8c\L	in	.	8a/L	.	8cc\L	.	4.D\	.	4.d\	.	(8a/L	.	(8cc\L	.	4.D\	.	.	.	(8a\L 8cc	.	(8aa\L	.	(8ccc\L	.
.	.	.	.	.	8cc\ 8ee	.	.	.	8c\J	.	.	8e\J	.	.	8cc/J	.	8ee\J	.	.	.	.	.	8cc/)	.	8ee\)	.	.	.	.	.	8cc\) 8ee	.	8ccc\)	.	8eee\)	.
.	.	.	.	.	8b\J 8dd	.	.	.	8B\	.	.	8d\	ex-	.	8b/	.	8dd\	.	.	.	.	.	8b'/J	.	8dd'\J	.	.	.	.	.	8b'\J 8dd	.	8bb'\J	.	8ddd'\J	.
=19	=19	=19	=19	=19	=19	=19	=19	=19	=19	=19	=19	=19	=19	=19	=19	=19	=19	=19	=19	=19	=19	=19	=19	=19	=19	=19	=19	=19	=19	=19	=19	=19	=19	=19	=19	=19
2.r	2.r	2.r	.	4GG/	4g/ 4b	4GG/	-sis	.	8G/	.	.	8B\	-cael-	.	8g/	.	8b/	.	4GG/	.	4G/	.	4g/	.	4b\	.	4GG/	.	2.r	.	4g/ 4b	.	4gg\	.	4bb\	.
.	.	.	.	.	.	.	.	.	8G/	.	.	8B\	-sis	.	8g/	.	8b/	.	.	.	.	.	.	.	.	.	.	.	.	.	.	.	.	.	.	.
.	.	.	.	8D/	8r	8D/	O-	.	8r	.	.	8r	.	.	8r	.	8r	.	8D/	.	8d/	.	8r	.	8r	.	8D/	.	.	.	8r	.	8r	.	8r	.
.	.	.	.	16C/LL	4r	(16C/LL	-san-	.	4r	.	.	4r	.	.	4r	.	4r	.	(16C/LL	.	(16c/LL	.	4r	.	4r	.	16C/LL	.	.	.	4r	.	4r	.	4r	.
.	.	.	.	16BB/J	.	16BB/J	.	.	.	.	.	.	.	.	.	.	.	.	16BB/J	.	16B/J	.	.	.	.	.	16BB/J	.	.	.	.	.	.	.	.	.
.	.	.	.	8AA/	.	8AA/)	.	.	.	.	.	.	.	.	.	.	.	.	8AA/)	.	8A/)	.	.	.	.	.	8AA/	.	.	.	.	.	.	.	.	.
.	.	.	.	8GG/J	8g/ 8b	8GG/J	-na	.	8G/	.	.	8B\	O-	.	8g/	.	8b/	.	8GG'/J	.	8G'/J	.	8g/	.	8b\	.	8GG/J	.	.	.	8g/ 8b	.	8gg\	.	8bb\	.
=20	=20	=20	=20	=20	=20	=20	=20	=20	=20	=20	=20	=20	=20	=20	=20	=20	=20	=20	=20	=20	=20	=20	=20	=20	=20	=20	=20	=20	=20	=20	=20	=20	=20	=20	=20	=20
!	!	!	!	!	!	!	!	!	!	!	!	!	!	!LO:DY:a	!	!	!	!	!	!	!	!	!	!	!	!	!	!	!	!	!	!	!	!	!	!
2.r	2.r	2.r	.	4.D\	4f#/ 4a	4.D\	in	.	4F#/	.	.	4A\	-san-	<	4f#/	.	4a/	.	4.D\	.	4.d\	<	4f#/	.	4a\	.	4.D\	.	2.r	.	4f#/ 4a	.	4ff#\	.	4aa\	<
.	.	.	.	.	8g/ 8b	.	.	.	8G/	.	.	8B\	na	.	8g/	.	8b/	.	.	.	.	.	8g/	.	8b\	<	.	.	.	.	8g/ 8b	.	8gg\	.	8bb\	.
.	.	.	.	4.DD/ 4.D	4a\ 4cc	4.D\	ex-	.	4A\	.	.	4c\	in	.	4a/	.	4cc\	.	4.D\	.	4.d\	[[	4a/	.	4cc\	.	4.D\	.	.	.	4a/ 4cc	.	4aa\	.	4ccc\	.
.	.	.	.	.	8b\ 8dd	.	.	.	8B\	.	.	8d\	ex-	[[	8b/	.	8dd\	.	.	.	.	.	8b/	.	8dd\	[[	.	.	.	.	8b/ 8dd	.	8bb\	.	8ddd\	[[
=21	=21	=21	=21	=21	=21	=21	=21	=21	=21	=21	=21	=21	=21	=21	=21	=21	=21	=21	=21	=21	=21	=21	=21	=21	=21	=21	=21	=21	=21	=21	=21	=21	=21	=21	=21	=21
*	*	*	*	*	*^	*	*	*	*	*	*	*	*	*	*	*	*	*	*	*	*	*	*	*	*	*	*	*	*	*	*	*	*	*	*	*
*	*	*^	*	*	*	*	*	*	*	*	*	*	*	*	*	*	*	*	*	*	*	*	*	*	*	*	*	*	*	*	*	*	*	*	*	*	*
!	!	!	!	!	!	!	!	!	!	!LO:DY:a	!	!	!	!	!	!LO:DY:a	!	!	!	!	!	!	!	!	!	!	!	!	!	!	!	!	!	!	!	!	!	!
4Ra/	4C\	4.ee/	4.c\	ff	4CC/ 4C	2.ee/	2.cc\	(4C/	-cael-	ff	4.c\	.	.	4.e\	-cael-	ff	4.cc\	.	4.ee\	ff	4C\	.	4c\	ff	4.cc\	.	4.ee\	ff	4C\	.	4.g/ 4.ee	.	4.cc\ 4.ee	ff	4.ccc\	.	4.eee\	ff
8r	8G\	.	.	.	8GG/ 8G	.	.	8G\)	.	.	.	.	.	.	.	.	.	.	.	.	8G\	.	8g\	.	.	.	.	.	8G\	.	.	.	.	.	.	.	.	.
4Ra	16F#\LL	4.ee/	4.c\	.	16F#\LL	.	.	(16F#\LL	-sis	.	4.c\	.	.	4.e\	-sis	.	4.cc\	.	4.ee\	.	(16F#\LL	.	(16f#\LL	.	4.cc\	.	4.ee\	.	(16F#\LL	.	4.g/ 4.ee	.	4.cc\ 4.ee	.	4.ccc\	.	4.eee\	.
.	16E\J	.	.	.	16E\J	.	.	16E\J	.	.	.	.	.	.	.	.	.	.	.	.	16E\J	.	16e\J	.	.	.	.	.	16E\J	.	.	.	.	.	.	.	.	.
.	8D\	.	.	.	8D\	.	.	8D\	.	.	.	.	.	.	.	.	.	.	.	.	8D\)	.	8d\)	.	.	.	.	.	8D\)	.	.	.	.	.	.	.	.	.
8r	8C\J	.	.	.	8C\J	.	.	8C\J)	.	.	.	.	.	.	.	.	.	.	.	.	8C'\J	.	8c'\J	.	.	.	.	.	8C\J	.	.	.	.	.	.	.	.	.
!!LO:PB:g=original
=22	=22	=22	=22	=22	=22	=22	=22	=22	=22	=22	=22	=22	=22	=22	=22	=22	=22	=22	=22	=22	=22	=22	=22	=22	=22	=22	=22	=22	=22	=22	=22	=22	=22	=22	=22	=22	=22	=22
*	*	*	*	*	*	*	*	*	*	*	*	*	*	*	*	*	*	*	*	*	*	*	*	*	*	*	*	*	*	*	*	*	*^	*	*	*	*	*
4Ra	4.C/	4.ryy	4.ee\ 4.cc	.	[4.C/	4.ee/	2.cc\	[4.C/	.	.	2.c\	.	.	[4.e\	De-	.	([4.cc\	.	([4.ee\	.	4.C/	.	4.c\	.	4.cc\	.	4.ee\	.	[4.C/	.	4.g/ 4.ee	.	[4.ee/	2.cc\	.	2.ccc\	.	[4.eee\	.
8r	.	.	.	.	.	.	.	.	.	.	.	.	.	.	.	.	.	.	.	.	.	.	.	.	.	.	.	.	.	.	.	.	.	.	.	.	.	.	.
4Ra/	4C/	4ee/	4cc\	.	4C/]	4ee/	.	4C/]	.	.	.	.	.	4e\]	.	.	4.cc\])	.	4ee\]	.	4C/	.	4c\	.	4cc\	.	4ee\	.	4C/]	.	4g/ 4ee	.	4ee/]	.	.	.	.	4eee\]	.
8Ra/	8E\	8gg/	8cc\	.	8E\	8gg/	.	8E\	.	.	.	.	.	8g\	.	.	.	.	8gg\)	.	8E\	.	8e\	.	8cc\	.	8gg\	.	8E\	.	8g/ 8ee	.	8gg/	.	.	.	.	8ggg\	.
=23	=23	=23	=23	=23	=23	=23	=23	=23	=23	=23	=23	=23	=23	=23	=23	=23	=23	=23	=23	=23	=23	=23	=23	=23	=23	=23	=23	=23	=23	=23	=23	=23	=23	=23	=23	=23	=23	=23	=23
*tremolo	*	*	*	*	*	*	*	*	*	*	*	*	*	*	*	*	*	*	*	*	*	*	*	*	*	*	*	*	*	*	*	*	*	*	*	*	*	*	*
32Re/L	2.G;\	2.dd;/	2.g\	.	2.G;\	2.dd;/	2.b\	2.G;\	.	.	2.B;\	.	.	2.d;\	-o.	.	2.b\	.	2.dd;\	.	2.G;\	.	2.g;\	.	2.b;\	.	2.dd;\	.	2.G;\	.	2.g;/ 2.dd	.	2.dd;/	2.b\	.	2.bb;\	.	2.ddd;\	.
32Re/	.	.	.	.	.	.	.	.	.	.	.	.	.	.	.	.	.	.	.	.	.	.	.	.	.	.	.	.	.	.	.	.	.	.	.	.	.	.	.
32Re/	.	.	.	.	.	.	.	.	.	.	.	.	.	.	.	.	.	.	.	.	.	.	.	.	.	.	.	.	.	.	.	.	.	.	.	.	.	.	.
32Re/	.	.	.	.	.	.	.	.	.	.	.	.	.	.	.	.	.	.	.	.	.	.	.	.	.	.	.	.	.	.	.	.	.	.	.	.	.	.	.
32Re/	.	.	.	.	.	.	.	.	.	.	.	.	.	.	.	.	.	.	.	.	.	.	.	.	.	.	.	.	.	.	.	.	.	.	.	.	.	.	.
32Re/	.	.	.	.	.	.	.	.	.	.	.	.	.	.	.	.	.	.	.	.	.	.	.	.	.	.	.	.	.	.	.	.	.	.	.	.	.	.	.
32Re/	.	.	.	.	.	.	.	.	.	.	.	.	.	.	.	.	.	.	.	.	.	.	.	.	.	.	.	.	.	.	.	.	.	.	.	.	.	.	.
32Re/	.	.	.	.	.	.	.	.	.	.	.	.	.	.	.	.	.	.	.	.	.	.	.	.	.	.	.	.	.	.	.	.	.	.	.	.	.	.	.
32Re/	.	.	.	.	.	.	.	.	.	.	.	.	.	.	.	.	.	.	.	.	.	.	.	.	.	.	.	.	.	.	.	.	.	.	.	.	.	.	.
32Re/	.	.	.	.	.	.	.	.	.	.	.	.	.	.	.	.	.	.	.	.	.	.	.	.	.	.	.	.	.	.	.	.	.	.	.	.	.	.	.
32Re/	.	.	.	.	.	.	.	.	.	.	.	.	.	.	.	.	.	.	.	.	.	.	.	.	.	.	.	.	.	.	.	.	.	.	.	.	.	.	.
32Re/J	.	.	.	.	.	.	.	.	.	.	.	.	.	.	.	.	.	.	.	.	.	.	.	.	.	.	.	.	.	.	.	.	.	.	.	.	.	.	.
*Xtremolo	*	*	*	*	*	*	*	*	*	*	*	*	*	*	*	*	*	*	*	*	*	*	*	*	*	*	*	*	*	*	*	*	*	*	*	*	*	*	*
4Re/	.	.	.	.	.	.	.	.	.	.	.	.	.	.	.	.	.	.	.	.	.	.	.	.	.	.	.	.	.	.	.	.	.	.	.	.	.	.	.
8r;	.	.	.	.	.	.	.	.	.	.	.	.	.	.	.	.	.	.	.	.	.	.	.	.	.	.	.	.	.	.	.	.	.	.	.	.	.	.	.
*	*	*v	*v	*	*	*	*	*	*	*	*	*	*	*	*	*	*	*	*	*	*	*	*	*	*	*	*	*	*	*	*	*	*	*	*	*	*	*	*
*	*	*	*	*	*v	*v	*	*	*	*	*	*	*	*	*	*	*	*	*	*	*	*	*	*	*	*	*	*	*	*	*	*v	*v	*	*	*	*	*
!LO:LB:g=original	!LO:LB:g=original	!LO:LB:g=original	!	!	!	!	!	!	!	!	!	!	!	!	!	!	!	!	!	!	!	!	!	!	!	!	!	!	!	!	!	!	!	!	!	!
!!LO:PB:g=original
==	==	==	==	==	==	==	==	==	==	==	==	==	==	==	==	==	==	==	==	==	==	==	==	==	==	==	==	==	==	==	==	==	==	==	==	==
*-	*-	*-	*-	*-	*-	*-	*-	*-	*-	*-	*-	*-	*-	*-	*-	*-	*-	*-	*-	*-	*-	*-	*-	*-	*-	*-	*-	*-	*-	*-	*-	*-	*-	*-	*-	*-
!!!system-decoration: [(s1,s2,s3,s4,s5)][(s6,s7,s8,s9)][(s10,s11)][(s12,s13,s14)]{(s15,s16)}[(s17,s18,s19)]
!!!RDF**kern: < = below
!!!RDF**kern: > = above
!!!RDF**kern: | = vertical stroke
!!!ENC: Marta Chmielewska
!!!END: 2021-04-26
!!!ENC: Marcin Jachim
!!!END: 2021-04-17
